src/assets/illustrations/feature/accessibility.svg

<svg xmlns="http://www.w3.org/2000/svg" width="800" height="450" viewBox="0 0 800 450">
  <g>
    <rect width="800" height="450" fill="#f2f5f7"/>
    <g>
      <line x1="400" y1="10" x2="400" y2="440" fill="none" stroke="#c0cfd8" stroke-linecap="round" stroke-miterlimit="10" stroke-width="2"/>
      <line x1="320" y1="10" x2="320" y2="440" fill="none" stroke="#c0cfd8" stroke-linecap="round" stroke-miterlimit="10" stroke-width="2"/>
      <line x1="240" y1="10" x2="240" y2="440" fill="none" stroke="#c0cfd8" stroke-linecap="round" stroke-miterlimit="10" stroke-width="2"/>
      <line x1="160" y1="10" x2="160" y2="440" fill="none" stroke="#c0cfd8" stroke-linecap="round" stroke-miterlimit="10" stroke-width="2"/>
      <line x1="80" y1="10" x2="80" y2="440" fill="none" stroke="#c0cfd8" stroke-linecap="round" stroke-miterlimit="10" stroke-width="2"/>
      <line x1="720" y1="10" x2="720" y2="440" fill="none" stroke="#c0cfd8" stroke-linecap="round" stroke-miterlimit="10" stroke-width="2"/>
      <line x1="640" y1="10" x2="640" y2="440" fill="none" stroke="#c0cfd8" stroke-linecap="round" stroke-miterlimit="10" stroke-width="2"/>
      <line x1="560" y1="10" x2="560" y2="440" fill="none" stroke="#c0cfd8" stroke-linecap="round" stroke-miterlimit="10" stroke-width="2"/>
      <line x1="480" y1="10" x2="480" y2="440" fill="none" stroke="#c0cfd8" stroke-linecap="round" stroke-miterlimit="10" stroke-width="2"/>
      <line x1="10.18273" y1="225" x2="790" y2="225" fill="none" stroke="#c0cfd8" stroke-linecap="round" stroke-miterlimit="10" stroke-width="2"/>
      <line x1="10.18273" y1="300" x2="790" y2="300" fill="none" stroke="#c0cfd8" stroke-linecap="round" stroke-miterlimit="10" stroke-width="2"/>
      <line x1="10.18273" y1="375" x2="790" y2="375" fill="none" stroke="#c0cfd8" stroke-linecap="round" stroke-miterlimit="10" stroke-width="2"/>
      <line x1="10.18273" y1="150" x2="790" y2="150" fill="none" stroke="#c0cfd8" stroke-linecap="round" stroke-miterlimit="10" stroke-width="2"/>
      <line x1="10.18273" y1="75" x2="790" y2="75" fill="none" stroke="#c0cfd8" stroke-linecap="round" stroke-miterlimit="10" stroke-width="2"/>
    </g>
    <circle cx="400" cy="225" r="200" fill="none" stroke="#f2f5f7" stroke-linecap="round" stroke-miterlimit="10" stroke-width="18"/>
    <circle cx="400" cy="225" r="200" fill="none" stroke="#c0cfd8" stroke-linecap="round" stroke-miterlimit="10" stroke-width="12"/>
    <g>
      <circle cx="90.00001" cy="89.99999" r="69.99999" fill="#f2f5f7" stroke="#f2f5f7" stroke-miterlimit="10" stroke-width="10"/>
      <circle cx="89.99999" cy="89.99999" r="69.99999" fill="none" stroke="#c0cfd8" stroke-miterlimit="10" stroke-width="4"/>
      <circle cx="89.99997" cy="89.99998" r="32.66665" transform="translate(-3.98585 4.17075) rotate(-2.59722)" fill="none" stroke="#c0cfd8" stroke-miterlimit="10" stroke-width="2"/>
      <circle cx="90" cy="90.00002" r="23.33334" fill="none" stroke="#c0cfd8" stroke-miterlimit="10" stroke-width="2"/>
      <path d="M107.84823,35.06177c8.58855,1.45126,15.31389,4.60794,20.17599,9.47003,4.8621,4.86212,7.93497,11.50363,9.2186,19.92459" fill="none" stroke="#c0cfd8" stroke-linecap="round" stroke-miterlimit="10" stroke-width="2"/>
      <path d="M109.44771,43.81634c5.43542,.84988,9.70651,2.84106,12.81325,5.97354,3.10674,3.13248,5.09643,7.45395,5.96904,12.96435" fill="none" stroke="#c0cfd8" stroke-linecap="round" stroke-miterlimit="10" stroke-width="2"/>
      <path d="M68.04775,138.99998c-8.58856-1.45123-15.31389-4.60791-20.176-9.47-4.86211-4.86212-7.93497-11.50363-9.2186-19.92459" fill="none" stroke="#c0cfd8" stroke-linecap="round" stroke-miterlimit="10" stroke-width="2"/>
      <path d="M66.44831,130.24538c-5.43543-.84985-9.70651-2.84103-12.81325-5.97351-3.10674-3.13248-5.09642-7.45395-5.96904-12.96435" fill="none" stroke="#c0cfd8" stroke-linecap="round" stroke-miterlimit="10" stroke-width="2"/>
    </g>
    <g>
      <circle cx="710.00001" cy="89.99999" r="69.99999" fill="#f2f5f7" stroke="#f2f5f7" stroke-miterlimit="10" stroke-width="10"/>
      <circle cx="709.99999" cy="89.99999" r="69.99999" fill="none" stroke="#c0cfd8" stroke-miterlimit="10" stroke-width="4"/>
      <circle cx="709.99997" cy="89.99998" r="32.66665" transform="translate(-3.34897 32.26571) rotate(-2.59722)" fill="none" stroke="#c0cfd8" stroke-miterlimit="10" stroke-width="2"/>
      <circle cx="710" cy="90.00002" r="23.33334" fill="none" stroke="#c0cfd8" stroke-miterlimit="10" stroke-width="2"/>
      <path d="M727.84823,35.06177c8.58855,1.45126,15.31389,4.60794,20.17599,9.47003,4.8621,4.86212,7.93497,11.50363,9.2186,19.92459" fill="none" stroke="#c0cfd8" stroke-linecap="round" stroke-miterlimit="10" stroke-width="2"/>
      <path d="M729.44771,43.81634c5.43542,.84988,9.70651,2.84106,12.81325,5.97354,3.10674,3.13248,5.09643,7.45395,5.96904,12.96435" fill="none" stroke="#c0cfd8" stroke-linecap="round" stroke-miterlimit="10" stroke-width="2"/>
      <path d="M688.04775,138.99998c-8.58856-1.45123-15.31389-4.60791-20.176-9.47-4.86211-4.86212-7.93497-11.50363-9.2186-19.92459" fill="none" stroke="#c0cfd8" stroke-linecap="round" stroke-miterlimit="10" stroke-width="2"/>
      <path d="M686.44831,130.24538c-5.43543-.84985-9.70651-2.84103-12.81325-5.97351-3.10674-3.13248-5.09642-7.45395-5.96904-12.96435" fill="none" stroke="#c0cfd8" stroke-linecap="round" stroke-miterlimit="10" stroke-width="2"/>
    </g>
    <g>
      <circle cx="90.00001" cy="360.00001" r="69.99999" fill="#f2f5f7" stroke="#f2f5f7" stroke-miterlimit="10" stroke-width="10"/>
      <circle cx="89.99999" cy="360.00001" r="69.99999" fill="none" stroke="#c0cfd8" stroke-miterlimit="10" stroke-width="4"/>
      <circle cx="89.99997" cy="360" r="32.66665" transform="translate(-16.22076 4.4481) rotate(-2.59722)" fill="none" stroke="#c0cfd8" stroke-miterlimit="10" stroke-width="2"/>
      <circle cx="90" cy="360.00004" r="23.33334" fill="none" stroke="#c0cfd8" stroke-miterlimit="10" stroke-width="2"/>
      <path d="M107.84823,305.06178c8.58855,1.45126,15.31389,4.60794,20.17599,9.47003,4.8621,4.86212,7.93497,11.50363,9.2186,19.92459" fill="none" stroke="#c0cfd8" stroke-linecap="round" stroke-miterlimit="10" stroke-width="2"/>
      <path d="M109.44771,313.81636c5.43542,.84988,9.70651,2.84106,12.81325,5.97354,3.10674,3.13248,5.09643,7.45395,5.96904,12.96435" fill="none" stroke="#c0cfd8" stroke-linecap="round" stroke-miterlimit="10" stroke-width="2"/>
      <path d="M68.04775,409c-8.58856-1.45123-15.31389-4.60791-20.176-9.47-4.86211-4.86212-7.93497-11.50363-9.2186-19.92459" fill="none" stroke="#c0cfd8" stroke-linecap="round" stroke-miterlimit="10" stroke-width="2"/>
      <path d="M66.44831,400.2454c-5.43543-.84985-9.70651-2.84103-12.81325-5.97351-3.10674-3.13248-5.09642-7.45395-5.96904-12.96435" fill="none" stroke="#c0cfd8" stroke-linecap="round" stroke-miterlimit="10" stroke-width="2"/>
    </g>
    <g>
      <circle cx="710.00001" cy="360.00001" r="69.99999" fill="#f2f5f7" stroke="#f2f5f7" stroke-miterlimit="10" stroke-width="10"/>
      <circle cx="709.99999" cy="360.00001" r="69.99999" fill="none" stroke="#c0cfd8" stroke-miterlimit="10" stroke-width="4"/>
      <circle cx="709.99997" cy="360" r="32.66665" transform="translate(-15.58387 32.54305) rotate(-2.59722)" fill="none" stroke="#c0cfd8" stroke-miterlimit="10" stroke-width="2"/>
      <circle cx="710" cy="360.00004" r="23.33334" fill="none" stroke="#c0cfd8" stroke-miterlimit="10" stroke-width="2"/>
      <path d="M727.84823,305.06178c8.58855,1.45126,15.31389,4.60794,20.17599,9.47003,4.8621,4.86212,7.93497,11.50363,9.2186,19.92459" fill="none" stroke="#c0cfd8" stroke-linecap="round" stroke-miterlimit="10" stroke-width="2"/>
      <path d="M729.44771,313.81636c5.43542,.84988,9.70651,2.84106,12.81325,5.97354,3.10674,3.13248,5.09643,7.45395,5.96904,12.96435" fill="none" stroke="#c0cfd8" stroke-linecap="round" stroke-miterlimit="10" stroke-width="2"/>
      <path d="M688.04775,409c-8.58856-1.45123-15.31389-4.60791-20.176-9.47-4.86211-4.86212-7.93497-11.50363-9.2186-19.92459" fill="none" stroke="#c0cfd8" stroke-linecap="round" stroke-miterlimit="10" stroke-width="2"/>
      <path d="M686.44831,400.2454c-5.43543-.84985-9.70651-2.84103-12.81325-5.97351-3.10674-3.13248-5.09642-7.45395-5.96904-12.96435" fill="none" stroke="#c0cfd8" stroke-linecap="round" stroke-miterlimit="10" stroke-width="2"/>
    </g>
    <circle cx="400" cy="225" r="120" fill="#f2f5f7" stroke="#f2f5f7" stroke-miterlimit="10" stroke-width="16"/>
    <g>
      <path d="M760.30669,413.62056c-4.38029-1.59313-8.98472-2.48628-13.64266-2.6467-.19739-1.17143-.52423-2.31715-.97348-3.41679-6.09376-15.06179-26.09433-23.9055-46.23448-19.34267-13.0365,2.95293-22.64719,10.72335-26.337,19.97629-6.92111,.08185-14.20993,2.01307-20.23398,5.71486-13.50795,8.3047-21.25824,23.15593-20.53877,36.09445h157.03988c.05246-14.69312-11.54279-30.10905-29.07952-36.37944Z" fill="#c0cfd8"/>
      <path d="M800,354.48109c-7.65135-5.07277-16.6566-8.01109-26.30801-8.01109-24.99069,.02124-45.69188,19.63069-49.54834,45.32185h-.64888c-29.43231-.92772-46.12827,21.44406-46.12827,47.90195,0,3.72446,.43232,7.15052,1.22166,10.3062h121.41185v-95.51891Z" fill="#fff" fill-rule="evenodd"/>
    </g>
  </g>
  <circle cx="400.54441" cy="224.95273" r="120.10882" fill="#d9118f"/>
  <rect x="355.75812" y="258.58122" width="44.27979" height="16.6768" fill="#fff"/>
  <circle cx="447.73882" cy="223.45449" r="15.92231" fill="#560a9b"/>
  <g>
    <path d="M358.84884,173.724s-3.59637-5.49754,.5306-8.20614c4.12697-2.70902,7.72004,2.85196,7.72004,2.85196,0,0-3.59637-5.49713,.53225-8.20573,4.12696-2.70901,7.73775,2.80418,7.73775,2.80418,0,0-3.61079-5.52926,.51783-8.2538,4.12697-2.72475,7.73775,2.80446,7.73775,2.80446,0,0,19.20369,23.84518,12.51271,31.13019-4.60977,4.98095-19.27866,12.60706-25.6792,14.83326-6.39931,2.22579-21.85997-9.31842-21.85997-9.31842,0,0-5.4654-2.32136-.85563-7.30231,4.60978-4.98136,10.01133,3.27092,10.01133,3.27092l-7.23228-11.12195-10.34789-16.06954s-5.34429-7.50005-1.21733-10.19291c4.12532-2.69283,8.33508,3.61688,8.33508,3.61688l11.55698,17.35895Z" fill="#ffad5c"/>
    <path d="M468.37444,206.21405c-1.93619-1.80065-4.04746-3.44147-6.17602-4.8071-4.42646-3.16629-9.64345-4.97972-15.20114-5.24542-11.30856,0-21.35491,9.86796-21.43154,9.94582l-17.28356,16.76738,17.3297,16.82794c1.95062,1.79736,4.06517,3.4357,6.18427,4.79928,4.42974,3.16794,9.64468,4.97806,15.08001,5.24253l.12111,.0033c6.4199,0,13.66331-3.30182,20.94667-9.54952l17.75237-17.18181-17.32187-16.80241h0Zm-21.44101,29.02552c-6.8022,0-12.31703-5.51484-12.31703-12.31704s5.51484-12.31704,12.31703-12.31704,12.31703,5.51484,12.31703,12.31704-5.51484,12.31704-12.31703,12.31704Z" fill="#fff"/>
    <path d="M442.56754,214.4618c2.2707,0,4.11089,1.84021,4.11089,4.1109s-1.84019,4.1109-4.11089,4.1109-4.1109-1.8402-4.1109-4.1109,1.84021-4.1109,4.1109-4.1109Z" fill="#fff"/>
    <path d="M364.46914,270.27879c-1.73392,0-3.1391-1.40558-3.1391-3.13908,0-1.73393,1.40518-3.1391,3.1391-3.1391,1.7335,0,3.13909,1.40517,3.13909,3.1391,0,1.7335-1.40559,3.13908-3.13909,3.13908Zm14.13334,0c-1.7335,0-3.13909-1.40558-3.13909-3.13908,0-1.73393,1.40559-3.1391,3.13909-3.1391s3.13909,1.40517,3.13909,3.1391c0,1.7335-1.40559,3.13908-3.13909,3.13908Zm14.13376,0c-1.73392,0-3.1391-1.40558-3.1391-3.13908,0-1.73393,1.40518-3.1391,3.1391-3.1391,1.7335,0,3.13868,1.40517,3.13868,3.1391,0,1.7335-1.40518,3.13908-3.13868,3.13908Zm-13.35434-27.59643c-19.29308,0-29.76332,9.96353-29.76332,23.89955,0,9.98743,5.39826,17.93692,15.55171,21.65276-1.02165,2.64022-2.12734,5.24707-3.34013,7.80614-.31061,.65336,.33162,1.35781,.9994,1.07892,4.16198-1.73845,8.04177-4.05529,11.54709-6.85988,1.60333,.16108,3.25568,.26943,5.00525,.26943,19.30874,0,29.78063-9.93182,29.78063-23.88186,0-13.95208-10.47189-23.96505-29.78063-23.96505" fill="#5c0a5c"/>
  </g>
</svg>

<svg width="800" height="450" viewBox="0 0 800 450" fill="none" xmlns="http://www.w3.org/2000/svg">
<path d="M800 0H0V450H800V0Z" fill="#F2F5F7"/>
<path d="M400 10V440" stroke="#C0CFD8" stroke-width="2" stroke-miterlimit="10" stroke-linecap="round"/>
<path d="M320 10V440" stroke="#C0CFD8" stroke-width="2" stroke-miterlimit="10" stroke-linecap="round"/>
<path d="M240 10V440" stroke="#C0CFD8" stroke-width="2" stroke-miterlimit="10" stroke-linecap="round"/>
<path d="M160 10V440" stroke="#C0CFD8" stroke-width="2" stroke-miterlimit="10" stroke-linecap="round"/>
<path d="M80 10V440" stroke="#C0CFD8" stroke-width="2" stroke-miterlimit="10" stroke-linecap="round"/>
<path d="M720 10V440" stroke="#C0CFD8" stroke-width="2" stroke-miterlimit="10" stroke-linecap="round"/>
<path d="M640 10V440" stroke="#C0CFD8" stroke-width="2" stroke-miterlimit="10" stroke-linecap="round"/>
<path d="M560 10V440" stroke="#C0CFD8" stroke-width="2" stroke-miterlimit="10" stroke-linecap="round"/>
<path d="M480 10V440" stroke="#C0CFD8" stroke-width="2" stroke-miterlimit="10" stroke-linecap="round"/>
<path d="M10.1827 225H790" stroke="#C0CFD8" stroke-width="2" stroke-miterlimit="10" stroke-linecap="round"/>
<path d="M10.1827 300H790" stroke="#C0CFD8" stroke-width="2" stroke-miterlimit="10" stroke-linecap="round"/>
<path d="M10.1827 375H790" stroke="#C0CFD8" stroke-width="2" stroke-miterlimit="10" stroke-linecap="round"/>
<path d="M10.1827 150H790" stroke="#C0CFD8" stroke-width="2" stroke-miterlimit="10" stroke-linecap="round"/>
<path d="M10.1827 75H790" stroke="#C0CFD8" stroke-width="2" stroke-miterlimit="10" stroke-linecap="round"/>
<path d="M400 425C510.457 425 600 335.457 600 225C600 114.543 510.457 25 400 25C289.543 25 200 114.543 200 225C200 335.457 289.543 425 400 425Z" stroke="#F2F5F7" stroke-width="18" stroke-miterlimit="10" stroke-linecap="round"/>
<path d="M400 425C510.457 425 600 335.457 600 225C600 114.543 510.457 25 400 25C289.543 25 200 114.543 200 225C200 335.457 289.543 425 400 425Z" stroke="#C0CFD8" stroke-width="12" stroke-miterlimit="10" stroke-linecap="round"/>
<path d="M90 160C128.66 160 160 128.66 160 90C160 51.3401 128.66 20 90 20C51.3401 20 20 51.3401 20 90C20 128.66 51.3401 160 90 160Z" fill="#F2F5F7" stroke="#F2F5F7" stroke-width="10" stroke-miterlimit="10"/>
<path d="M90 160C128.66 160 160 128.66 160 90C160 51.3401 128.66 20 90 20C51.3401 20 20 51.3401 20 90C20 128.66 51.3401 160 90 160Z" stroke="#C0CFD8" stroke-width="4" stroke-miterlimit="10"/>
<path d="M91.4803 122.633C109.503 121.816 123.451 106.542 122.633 88.5197C121.816 70.497 106.542 56.5494 88.5197 57.3669C70.4969 58.1844 56.5494 73.4575 57.3669 91.4803C58.1844 109.503 73.4575 123.451 91.4803 122.633Z" stroke="#C0CFD8" stroke-width="2" stroke-miterlimit="10"/>
<path d="M90 113.333C102.887 113.333 113.333 102.887 113.333 90C113.333 77.1134 102.887 66.6667 90 66.6667C77.1134 66.6667 66.6667 77.1134 66.6667 90C66.6667 102.887 77.1134 113.333 90 113.333Z" stroke="#C0CFD8" stroke-width="2" stroke-miterlimit="10"/>
<path d="M107.848 35.0618C116.437 36.513 123.162 39.6697 128.024 44.5318C132.886 49.3939 135.959 56.0354 137.243 64.4564" stroke="#C0CFD8" stroke-width="2" stroke-miterlimit="10" stroke-linecap="round"/>
<path d="M109.448 43.8163C114.883 44.6662 119.154 46.6574 122.261 49.7899C125.368 52.9224 127.357 57.2438 128.23 62.7542" stroke="#C0CFD8" stroke-width="2" stroke-miterlimit="10" stroke-linecap="round"/>
<path d="M68.0478 139C59.4592 137.549 52.7339 134.392 47.8718 129.53C43.0096 124.668 39.9368 118.026 38.6532 109.605" stroke="#C0CFD8" stroke-width="2" stroke-miterlimit="10" stroke-linecap="round"/>
<path d="M66.4483 130.245C61.0129 129.396 56.7418 127.404 53.6351 124.272C50.5283 121.139 48.5386 116.818 47.666 111.308" stroke="#C0CFD8" stroke-width="2" stroke-miterlimit="10" stroke-linecap="round"/>
<path d="M710 160C748.66 160 780 128.66 780 90C780 51.3401 748.66 20 710 20C671.34 20 640 51.3401 640 90C640 128.66 671.34 160 710 160Z" fill="#F2F5F7" stroke="#F2F5F7" stroke-width="10" stroke-miterlimit="10"/>
<path d="M710 160C748.66 160 780 128.66 780 90C780 51.3401 748.66 20 710 20C671.34 20 640 51.3401 640 90C640 128.66 671.34 160 710 160Z" stroke="#C0CFD8" stroke-width="4" stroke-miterlimit="10"/>
<path d="M711.48 122.633C729.503 121.815 743.451 106.542 742.633 88.5197C741.816 70.4969 726.542 56.5493 708.52 57.3668C690.497 58.1844 676.549 73.4574 677.367 91.4802C678.184 109.503 693.458 123.451 711.48 122.633Z" stroke="#C0CFD8" stroke-width="2" stroke-miterlimit="10"/>
<path d="M710 113.333C722.887 113.333 733.333 102.887 733.333 90C733.333 77.1134 722.887 66.6667 710 66.6667C697.113 66.6667 686.667 77.1134 686.667 90C686.667 102.887 697.113 113.333 710 113.333Z" stroke="#C0CFD8" stroke-width="2" stroke-miterlimit="10"/>
<path d="M727.848 35.0618C736.437 36.513 743.162 39.6697 748.024 44.5318C752.886 49.3939 755.959 56.0354 757.243 64.4564" stroke="#C0CFD8" stroke-width="2" stroke-miterlimit="10" stroke-linecap="round"/>
<path d="M729.448 43.8163C734.883 44.6662 739.154 46.6574 742.261 49.7899C745.368 52.9224 747.357 57.2438 748.23 62.7542" stroke="#C0CFD8" stroke-width="2" stroke-miterlimit="10" stroke-linecap="round"/>
<path d="M688.048 139C679.459 137.549 672.734 134.392 667.872 129.53C663.01 124.668 659.937 118.026 658.653 109.605" stroke="#C0CFD8" stroke-width="2" stroke-miterlimit="10" stroke-linecap="round"/>
<path d="M686.448 130.245C681.013 129.396 676.742 127.404 673.635 124.272C670.528 121.139 668.539 116.818 667.666 111.308" stroke="#C0CFD8" stroke-width="2" stroke-miterlimit="10" stroke-linecap="round"/>
<path d="M90 430C128.66 430 160 398.66 160 360C160 321.34 128.66 290 90 290C51.3401 290 20 321.34 20 360C20 398.66 51.3401 430 90 430Z" fill="#F2F5F7" stroke="#F2F5F7" stroke-width="10" stroke-miterlimit="10"/>
<path d="M90 430C128.66 430 160 398.66 160 360C160 321.34 128.66 290 90 290C51.3401 290 20 321.34 20 360C20 398.66 51.3401 430 90 430Z" stroke="#C0CFD8" stroke-width="4" stroke-miterlimit="10"/>
<path d="M91.4803 392.633C109.503 391.816 123.451 376.542 122.633 358.52C121.816 340.497 106.542 326.549 88.5197 327.367C70.497 328.184 56.5494 343.458 57.3669 361.48C58.1844 379.503 73.4575 393.451 91.4803 392.633Z" stroke="#C0CFD8" stroke-width="2" stroke-miterlimit="10"/>
<path d="M90 383.333C102.887 383.333 113.333 372.887 113.333 360C113.333 347.113 102.887 336.667 90 336.667C77.1134 336.667 66.6667 347.113 66.6667 360C66.6667 372.887 77.1134 383.333 90 383.333Z" stroke="#C0CFD8" stroke-width="2" stroke-miterlimit="10"/>
<path d="M107.848 305.062C116.437 306.513 123.162 309.67 128.024 314.532C132.886 319.394 135.959 326.035 137.243 334.456" stroke="#C0CFD8" stroke-width="2" stroke-miterlimit="10" stroke-linecap="round"/>
<path d="M109.448 313.816C114.883 314.666 119.154 316.657 122.261 319.79C125.368 322.922 127.357 327.244 128.23 332.754" stroke="#C0CFD8" stroke-width="2" stroke-miterlimit="10" stroke-linecap="round"/>
<path d="M68.0478 409C59.4592 407.549 52.7339 404.392 47.8718 399.53C43.0096 394.668 39.9368 388.026 38.6532 379.605" stroke="#C0CFD8" stroke-width="2" stroke-miterlimit="10" stroke-linecap="round"/>
<path d="M66.4483 400.245C61.0129 399.396 56.7418 397.404 53.6351 394.272C50.5283 391.139 48.5386 386.818 47.666 381.308" stroke="#C0CFD8" stroke-width="2" stroke-miterlimit="10" stroke-linecap="round"/>
<path d="M710 430C748.66 430 780 398.66 780 360C780 321.34 748.66 290 710 290C671.34 290 640 321.34 640 360C640 398.66 671.34 430 710 430Z" fill="#F2F5F7" stroke="#F2F5F7" stroke-width="10" stroke-miterlimit="10"/>
<path d="M710 430C748.66 430 780 398.66 780 360C780 321.34 748.66 290 710 290C671.34 290 640 321.34 640 360C640 398.66 671.34 430 710 430Z" stroke="#C0CFD8" stroke-width="4" stroke-miterlimit="10"/>
<path d="M711.48 392.633C729.503 391.816 743.451 376.542 742.633 358.52C741.816 340.497 726.542 326.549 708.52 327.367C690.497 328.184 676.549 343.457 677.367 361.48C678.184 379.503 693.458 393.451 711.48 392.633Z" stroke="#C0CFD8" stroke-width="2" stroke-miterlimit="10"/>
<path d="M710 383.333C722.887 383.333 733.333 372.887 733.333 360C733.333 347.113 722.887 336.667 710 336.667C697.113 336.667 686.667 347.113 686.667 360C686.667 372.887 697.113 383.333 710 383.333Z" stroke="#C0CFD8" stroke-width="2" stroke-miterlimit="10"/>
<path d="M727.848 305.062C736.437 306.513 743.162 309.67 748.024 314.532C752.886 319.394 755.959 326.035 757.243 334.456" stroke="#C0CFD8" stroke-width="2" stroke-miterlimit="10" stroke-linecap="round"/>
<path d="M729.448 313.816C734.883 314.666 739.154 316.657 742.261 319.79C745.368 322.922 747.357 327.244 748.23 332.754" stroke="#C0CFD8" stroke-width="2" stroke-miterlimit="10" stroke-linecap="round"/>
<path d="M688.048 409C679.459 407.549 672.734 404.392 667.872 399.53C663.01 394.668 659.937 388.026 658.653 379.605" stroke="#C0CFD8" stroke-width="2" stroke-miterlimit="10" stroke-linecap="round"/>
<path d="M686.448 400.245C681.013 399.396 676.742 397.404 673.635 394.272C670.528 391.139 668.539 386.818 667.666 381.308" stroke="#C0CFD8" stroke-width="2" stroke-miterlimit="10" stroke-linecap="round"/>
<path d="M400 345C466.274 345 520 291.274 520 225C520 158.726 466.274 105 400 105C333.726 105 280 158.726 280 225C280 291.274 333.726 345 400 345Z" fill="#F2F5F7" stroke="#F2F5F7" stroke-width="16" stroke-miterlimit="10"/>
<path d="M760.307 413.621C755.926 412.027 751.322 411.134 746.664 410.974C746.467 409.802 746.14 408.657 745.691 407.557C739.597 392.495 719.596 383.652 699.456 388.214C686.42 391.167 676.809 398.938 673.119 408.191C666.198 408.273 658.909 410.204 652.885 413.906C639.377 422.21 631.627 437.061 632.346 450H789.386C789.439 435.307 777.843 419.891 760.307 413.621V413.621Z" fill="#C0CFD8"/>
<path fill-rule="evenodd" clip-rule="evenodd" d="M800 354.481C792.349 349.408 783.343 346.47 773.692 346.47C748.701 346.491 728 366.101 724.144 391.792H723.495C694.062 390.864 677.367 413.236 677.367 439.694C677.367 443.418 677.799 446.844 678.588 450H800V354.481V354.481Z" fill="white"/>
<path d="M400.544 345.062C466.879 345.062 520.653 291.287 520.653 224.953C520.653 158.618 466.879 104.844 400.544 104.844C334.21 104.844 280.436 158.618 280.436 224.953C280.436 291.287 334.21 345.062 400.544 345.062Z" fill="#D9118F"/>
<path d="M400.038 258.581H355.758V275.258H400.038V258.581Z" fill="white"/>
<path d="M447.739 239.377C456.532 239.377 463.661 232.248 463.661 223.454C463.661 214.661 456.532 207.532 447.739 207.532C438.945 207.532 431.816 214.661 431.816 223.454C431.816 232.248 438.945 239.377 447.739 239.377Z" fill="#560A9B"/>
<path d="M358.849 173.724C358.849 173.724 355.252 168.226 359.379 165.518C363.506 162.809 367.099 168.37 367.099 168.37C367.099 168.37 363.503 162.873 367.632 160.164C371.759 157.455 375.369 162.968 375.369 162.968C375.369 162.968 371.759 157.439 375.887 154.714C380.014 151.99 383.625 157.519 383.625 157.519C383.625 157.519 402.829 181.364 396.138 188.649C391.528 193.63 376.859 201.256 370.459 203.482C364.059 205.708 348.599 194.164 348.599 194.164C348.599 194.164 343.133 191.843 347.743 186.862C352.353 181.88 357.754 190.133 357.754 190.133L350.522 179.011L340.174 162.941C340.174 162.941 334.83 155.441 338.957 152.748C343.082 150.055 347.292 156.365 347.292 156.365L358.849 173.724V173.724Z" fill="#FFAD5C"/>
<path d="M468.374 206.214C466.438 204.413 464.327 202.773 462.198 201.407C457.772 198.241 452.555 196.427 446.997 196.162C435.689 196.162 425.642 206.029 425.566 206.107L408.282 222.875L425.612 239.703C427.562 241.5 429.677 243.138 431.796 244.502C436.226 247.67 441.441 249.48 446.876 249.744L446.997 249.748C453.417 249.748 460.661 246.446 467.944 240.198L485.696 223.016L468.374 206.214V206.214ZM446.933 235.24C440.131 235.24 434.616 229.725 434.616 222.923C434.616 216.12 440.131 210.605 446.933 210.605C453.736 210.605 459.25 216.12 459.25 222.923C459.25 229.725 453.736 235.24 446.933 235.24Z" fill="white"/>
<path d="M442.568 214.462C444.838 214.462 446.678 216.302 446.678 218.573C446.678 220.843 444.838 222.684 442.568 222.684C440.297 222.684 438.457 220.843 438.457 218.573C438.457 216.302 440.297 214.462 442.568 214.462Z" fill="white"/>
<path d="M364.469 270.279C362.735 270.279 361.33 268.873 361.33 267.14C361.33 265.406 362.735 264.001 364.469 264.001C366.203 264.001 367.608 265.406 367.608 267.14C367.608 268.873 366.203 270.279 364.469 270.279ZM378.602 270.279C376.869 270.279 375.463 268.873 375.463 267.14C375.463 265.406 376.869 264.001 378.602 264.001C380.336 264.001 381.742 265.406 381.742 267.14C381.742 268.873 380.336 270.279 378.602 270.279ZM392.736 270.279C391.002 270.279 389.597 268.873 389.597 267.14C389.597 265.406 391.002 264.001 392.736 264.001C394.47 264.001 395.875 265.406 395.875 267.14C395.875 268.873 394.47 270.279 392.736 270.279ZM379.382 242.682C360.089 242.682 349.619 252.646 349.619 266.582C349.619 276.569 355.017 284.519 365.17 288.235C364.149 290.875 363.043 293.482 361.83 296.041C361.52 296.694 362.162 297.399 362.83 297.12C366.992 295.381 370.871 293.064 374.377 290.26C375.98 290.421 377.632 290.529 379.382 290.529C398.691 290.529 409.163 280.597 409.163 266.647C409.163 252.695 398.691 242.682 379.382 242.682" fill="#5C0A5C"/>
</svg>
